X:2018 
T:She answered me quite modestly 
C:Charles Clague, Coachman
O:Isle of Man
S:Traditional 
Z:Clague collection
B:Kiaull Vannin #18 
M:4/4 
L:1/8 
Q:140 
K:D 
f>e|d2 B2 B2 B2|F2 B2 B2 c2|e2 c2 A2 c2|e6 f>e|d2 B2 B2 B2|F2 B2 B2 c2|e2 c2 A2 c2|(e4 f2) f>g| 
a2 f2 b2 f>g|a2 f2 b4|a2 g2 f2 e2|c2 B2 B2 a2|g2 f2 f2 B2|B4 c2 a2|g2 f2 f2 B2| B6|| 
